Adwaita++/apps/16/configurazione.svg

<svg fill="none" height="16" viewBox="0 0 16 16" width="16" xmlns="http://www.w3.org/2000/svg">
  <g clip-rule="evenodd" fill="#444" fill-rule="evenodd">
    <path d="m2 0s-2-.00340013-2 2v12c0 1.9966 2 2 2 2h12c.0022-.0001.0053-.0002.0093-.0002.1713-.0042 1.9907-.0487 1.9907-1.9998v-12s0-2-2-2zm12.5 2.02228c0-.00043-.0001-.00088-.0001-.00135-.0011-.01481-.0039-.04576-.0107-.08683-.0149-.08926-.0419-.18535-.0808-.26328-.0361-.07205-.0666-.09848-.0842-.11024l-.0004-.00029c-.0103-.00686-.0899-.06029-.3238-.06029h-11.97964c-.00056.00004-.00115.00008-.00178.00012-.01473.00103-.04557.00381-.08652.01058-.08903.01471-.1847.04146-.26215.08012-.07148.03568-.09751.0658-.10912.08322-.00008.00012-.00017.00026-.00028.00042-.00681.01015-.06051.0902-.06051.32554v12c0 .2326.05315.3117.06007.322l.00029.0005c.01192.0178.03874.0487.11136.0851.0784.0392.1749.0664.26439.0814.0412.0069.07225.0098.08714.0109.00031.0001.00061.0001.0009.0001h11.95515c.0307-.001.0696-.0034.129-.0131.0903-.0149.1774-.0407.2435-.0745.0585-.03.0772-.0535.0864-.0678l.0001-.0003c.0064-.0098.0617-.0958.0617-.3443z"/>
    <path d="m13.3855 2.29903c.3872.21292.5284.69937.3155 1.08651l-5.50003 9.99996c-.12657.2302-.35803.3835-.61929.4103-.26127.0268-.51905-.0763-.68973-.2759l-4.5-5.26318c-.28712-.33581-.24765-.8408.08817-1.12793.33581-.28712.84081-.24765 1.12793.08817l3.74837 4.38404 4.94258-8.98653c.213-.38714.6994-.52837 1.0865-.31544z"/>
  </g>
</svg>

<svg xmlns="http://www.w3.org/2000/svg" fill="none" width="16" height="16" viewBox="0 0 16 16">
 <g fill="#444">
  <path fill-rule="evenodd" d="M2 0C2 0 0 -0.00340013 0 2V14C0 15.9966 2 16 2 16H14C14.0022 15.9999 14.0053 15.9998 14.0093 15.9998C14.1806 15.9956 16 15.9511 16 14V2C16 2 16 0 14 0H2ZM14.5 2.02228C14.5 2.02185 14.4999 2.0214 14.4999 2.02093C14.4988 2.00612 14.496 1.97517 14.4892 1.9341C14.4743 1.84484 14.4473 1.74875 14.4084 1.67082C14.3723 1.59877 14.3418 1.57234 14.3242 1.56058L14.3238 1.56029C14.3135 1.55343 14.2339 1.5 14 1.5H2.02036C2.0198 1.50004 2.01921 1.50008 2.01858 1.50012C2.00385 1.50115 1.97301 1.50393 1.93206 1.5107C1.84303 1.52541 1.74736 1.55216 1.66991 1.59082C1.59843 1.6265 1.5724 1.65662 1.56079 1.67404C1.56071 1.67416 1.56062 1.6743 1.56051 1.67446C1.5537 1.68461 1.5 1.76466 1.5 2V14C1.5 14.2326 1.55315 14.3117 1.56007 14.322L1.56036 14.3225C1.57228 14.3403 1.5991 14.3712 1.67172 14.4076C1.75012 14.4468 1.84662 14.474 1.93611 14.489C1.97731 14.4959 2.00836 14.4988 2.02325 14.4999C2.02356 14.5 2.02386 14.5 2.02415 14.5H13.9793C14.01 14.499 14.0489 14.4966 14.1083 14.4869C14.1986 14.472 14.2857 14.4462 14.3518 14.4124C14.4103 14.3824 14.429 14.3589 14.4382 14.3446L14.4383 14.3443C14.4447 14.3345 14.5 14.2485 14.5 14V2.02228Z" clip-rule="evenodd"/>
  <path fill-rule="evenodd" d="M13.3855 2.29903C13.7727 2.51195 13.9139 2.9984 13.701 3.38554L8.20097 13.3855C8.0744 13.6157 7.84294 13.769 7.58168 13.7958C7.32041 13.8226 7.06263 13.7195 6.89195 13.5199L2.39195 8.25672C2.10483 7.92091 2.1443 7.41592 2.48012 7.12879C2.81593 6.84167 3.32093 6.88114 3.60805 7.21696L7.35642 11.601L12.299 2.61447C12.512 2.22733 12.9984 2.0861 13.3855 2.29903Z" clip-rule="evenodd"/>
 </g>
</svg>
